X: 1
T:Butlers of Glen Avenue, The
M:6/8
L:1/8
R:jig
K:G
~G3 EGD|~G3 EGD|~G3 BGG|dGG (3Bcd A|
!~G3 EGD|~G3 EGD|GAB deg|deg edB:|
!:deg ~b3|bab deg|~b3 bag|edB deg|
!~b3 bab|agg bgg|agg efg|deg edB:|
